src/assets/duotone/CloudLightning.svg

<svg width="24" height="24" viewBox="0 0 24 24"  xmlns="http://www.w3.org/2000/svg">
<path opacity="0.4" d="M21.74 11.7401C21.13 9.74005 19.61 8.30005 17.7 7.87005C17.14 5.37005 15.6 3.58005 13.42 2.90005C11.04 2.17005 8.28 2.88005 6.55 4.69005C5.02 6.28005 4.52 8.47005 5.11 10.8001C2.98 11.3201 2 13.1801 2 14.8601C2 16.7401 3.23 18.8501 5.97 19.0401H8.5V16.4101C8.5 15.1401 9.26 14.3801 10.53 14.3801H13.47C14.74 14.3801 15.5 15.1401 15.5 16.4101V19.0401H16.31C16.32 19.0401 16.34 19.0401 16.35 19.0401C17.77 19.0401 19.13 18.5101 20.17 17.5601C21.8 16.1401 22.4 13.9101 21.74 11.7401Z" />
<path d="M13.47 14.39H10.53C9.26 14.39 8.5 15.15 8.5 16.42V19.36C8.5 20.63 9.26 21.39 10.53 21.39H13.47C14.74 21.39 15.5 20.63 15.5 19.36V16.42C15.5 15.15 14.74 14.39 13.47 14.39ZM13.67 18.05L12 19.95L11.8 20.18C11.53 20.49 11.3 20.41 11.3 19.99V18.21H10.54C10.19 18.21 10.1 18 10.33 17.74L12 15.84L12.2 15.61C12.47 15.3 12.7 15.38 12.7 15.8V17.58H13.46C13.81 17.57 13.9 17.79 13.67 18.05Z" />
</svg>

<?xml version="1.0" encoding="UTF-8"?>
<svg width="24" height="24" viewBox="0 0 24 24" xmlns="http://www.w3.org/2000/svg">
 <path d="m21.74 11.74c-0.61-2-2.13-3.44-4.04-3.87-0.56-2.5-2.1-4.29-4.28-4.97-2.38-0.73-5.14-0.02-6.87 1.79-1.53 1.59-2.03 3.78-1.44 6.11-2.13 0.52-3.11 2.38-3.11 4.06 0 1.88 1.23 3.99 3.97 4.18h2.53v-2.63c0-1.27 0.76-2.03 2.03-2.03h2.94c1.27 0 2.03 0.76 2.03 2.03v2.63h0.81 0.04c1.42 0 2.78-0.53 3.82-1.48 1.63-1.42 2.23-3.65 1.57-5.82z" opacity=".4"/>
 <path d="m13.47 14.39h-2.94c-1.27 0-2.03 0.76-2.03 2.03v2.94c0 1.27 0.76 2.03 2.03 2.03h2.94c1.27 0 2.03-0.76 2.03-2.03v-2.94c0-1.27-0.76-2.03-2.03-2.03zm0.2 3.66-1.67 1.9-0.2 0.23c-0.27 0.31-0.5 0.23-0.5-0.19v-1.78h-0.76c-0.35 0-0.44-0.21-0.21-0.47l1.67-1.9 0.2-0.23c0.27-0.31 0.5-0.23 0.5 0.19v1.78h0.76c0.35-0.01 0.44 0.21 0.21 0.47z"/>
</svg>
